svg/u2747.svg

<svg viewBox="0 0 128 128" xmlns="http://www.w3.org/2000/svg">
  <path d="M63.9,56.6c-4,0.4-7.6,3.8-7.3,8c0.3,3.9,3.2,7.1,7,7.6c4.1,0.6,8-1.9,8.9-6.2 C73.5,60.6,69.2,56.1,63.9,56.6z" fill="#7CB342"/>
  <path d="M73.2,93.5c-0.5-2.6-1.2-5.1-1.8-7.6c-0.6-2.7-1.5-5.5-2.6-7.9c-1.6-3.5-5.4-4.7-7.7-1.7 c-1.9,2.5-3.3,6.5-4.1,9.6c-2.4,8.9-9.5,35.9,6,38.1c4,0.5,8-2.1,9.8-5.8c2.2-4.8,2.1-10.2,1.6-15.4C74.2,100.2,73.7,96,73.2,93.5z" fill="#7CB342"/>
  <path d="M123.9,63c-2.1-15.6-29.1-8.5-38-6c-3.1,0.8-7.1,2.2-9.6,4.1c-3.1,2.3-1.8,6.2,1.7,7.7 c2.5,1.1,5.3,1.9,7.9,2.6c2.5,0.6,5.1,1.2,7.6,1.8c2.5,0.5,6.7,1,9.3,1.2c5.2,0.5,10.6,0.7,15.4-1.6C121.8,71.1,124.5,67,123.9,63z" fill="#7CB342"/>
  <path d="M51.7,61.1c-2.5-1.9-6.5-3.2-9.6-4.1c-8.9-2.4-35.9-9.5-38,6c-0.5,4,2.1,8,5.8,9.8 c4.7,2.2,10.2,2.1,15.4,1.6c2.6-0.2,6.8-0.7,9.3-1.2c2.6-0.5,5.1-1.2,7.6-1.8c2.7-0.6,5.5-1.5,7.9-2.6 C53.6,67.3,54.8,63.5,51.7,61.1z" fill="#7CB342"/>
  <path d="M81.4,50.2c0.3,0,0.7-0.1,1-0.3c2.6-1.9,25.8-18.8,27.5-20.5c0.8-0.8,2.2-2.4,3-4.4 c0.9-2.5,0.4-4.8-1.4-6.6c-1.2-1.2-2.8-1.9-4.4-1.9c-2.7,0-5.3,1.7-6.9,3.2C98.6,21.4,81.9,44.8,80,47.5c-0.5,0.7-0.4,1.6,0.2,2.2 C80.5,50,81,50.2,81.4,50.2z" fill="#7CB342"/>
  <path d="M18.1,29.3C19.8,31,43,47.9,45.6,49.8c0.3,0.2,0.7,0.3,1,0.3c0.4,0,0.9-0.2,1.2-0.5 c0.6-0.6,0.7-1.5,0.2-2.2c-1.9-2.7-18.5-26.1-20.3-27.8c-1.6-1.6-4.2-3.2-6.9-3.2c-1.7,0-3.2,0.6-4.4,1.9c-1.8,1.8-2.3,4.1-1.4,6.6 C15.8,26.9,17.3,28.5,18.1,29.3z" fill="#7CB342"/>
  <path d="M109.9,98.7C108.2,97,85,80.1,82.4,78.2c-0.7-0.5-1.6-0.4-2.2,0.2s-0.7,1.5-0.2,2.2 c1.9,2.7,18.5,26.1,20.3,27.8c1.6,1.6,4.2,3.2,6.9,3.2c1.7,0,3.2-0.6,4.4-1.9c1.8-1.8,2.3-4.1,1.4-6.6 C112.2,101.1,110.7,99.5,109.9,98.7z" fill="#7CB342"/>
  <path d="M45.6,78.2C43,80.1,19.8,96.9,18.1,98.7c-0.8,0.8-2.2,2.4-3,4.4c-0.9,2.5-0.4,4.8,1.4,6.6 c1.2,1.2,2.8,1.9,4.4,1.9c2.7,0,5.3-1.7,6.9-3.2c1.7-1.7,18.4-25.2,20.3-27.8c0.5-0.7,0.4-1.6-0.2-2.2 C47.2,77.7,46.3,77.7,45.6,78.2L45.6,78.2z" fill="#7CB342"/>
  <path d="M109.17,19.98c-0.59-1.44-2.73-1.48-4.78-0.39 c-1.65,0.88-3.17,2.76-2.07,4.2c1.14,1.49,2.73-0.47,4.2-1.37C108,21.53,109.72,21.31,109.17,19.98z" opacity="0.3" fill="#FFFFFF" enable-background="new "/>
  <path d="M23.37,19.77c-0.59-1.44-2.73-1.48-4.78-0.39 c-1.65,0.88-3.17,2.76-2.07,4.2c1.14,1.49,2.73-0.47,4.2-1.37C22.21,21.32,23.92,21.1,23.37,19.77z" opacity="0.3" fill="#FFFFFF" enable-background="new "/>
  <path d="M61.1,51.7c2.3,3.1,6.2,1.8,7.7-1.7c1.1-2.5,1.9-5.3,2.6-7.9c0.6-2.5,1.2-5.1,1.8-7.6 c0.5-2.5,1-6.7,1.2-9.3c0.5-5.2,0.7-10.6-1.6-15.4C71.1,6.1,67,3.5,63,4c-15.6,2.1-8.5,29.1-6,38.1C57.9,45.3,59.2,49.3,61.1,51.7z" fill="#7CB342"/>
  <path d="M68.07,8.72c-0.89-2.18-4.13-2.24-7.24-0.59 c-2.5,1.33-4.8,4.18-3.13,6.36c1.73,2.26,4.13-0.71,6.36-2.07C66.29,11.05,68.91,10.73,68.07,8.72z" opacity="0.3" fill="#FFFFFF" enable-background="new "/>
</svg>

<svg viewBox="0 0 128 128" xmlns="http://www.w3.org/2000/svg">
  <defs/>
  <path d="M63.9,56.6 C59.9,57 56.3,60.4 56.6,64.6 C56.9,68.5 59.8,71.7 63.6,72.2 C67.7,72.8 71.6,70.3 72.5,66 C73.5,60.6 69.2,56.1 63.9,56.6 Z" fill="#7CB342"/>
  <path d="M73.2,93.5 C72.7,90.9 72,88.4 71.4,85.9 C70.8,83.2 69.9,80.4 68.8,78 C67.2,74.5 63.4,73.3 61.1,76.3 C59.2,78.8 57.8,82.8 57,85.9 C54.6,94.8 47.5,121.8 63,124 C67,124.5 71,121.9 72.8,118.2 C75,113.4 74.9,108 74.4,102.8 C74.2,100.2 73.7,96 73.2,93.5 Z" fill="#7CB342"/>
  <path d="M123.9,63 C121.8,47.4 94.8,54.5 85.9,57 C82.8,57.8 78.8,59.2 76.3,61.1 C73.2,63.4 74.5,67.3 78,68.8 C80.5,69.9 83.3,70.7 85.9,71.4 C88.4,72 91,72.6 93.5,73.2 C96,73.7 100.2,74.2 102.8,74.4 C108,74.9 113.4,75.1 118.2,72.8 C121.8,71.1 124.5,67 123.9,63 Z" fill="#7CB342"/>
  <path d="M51.7,61.1 C49.2,59.2 45.2,57.9 42.1,57 C33.2,54.6 6.2,47.5 4.1,63 C3.6,67 6.2,71 9.9,72.8 C14.6,75 20.1,74.9 25.3,74.4 C27.9,74.2 32.1,73.7 34.6,73.2 C37.2,72.7 39.7,72 42.2,71.4 C44.9,70.8 47.7,69.9 50.1,68.8 C53.6,67.3 54.8,63.5 51.7,61.1 Z" fill="#7CB342"/>
  <path d="M81.4,50.2 C81.7,50.2 82.1,50.1 82.4,49.9 C85,48 108.2,31.1 109.9,29.4 C110.7,28.6 112.1,27 112.9,25 C113.8,22.5 113.3,20.2 111.5,18.4 C110.3,17.2 108.7,16.5 107.1,16.5 C104.4,16.5 101.8,18.2 100.2,19.7 C98.6,21.4 81.9,44.8 80,47.5 C79.5,48.2 79.6,49.1 80.2,49.7 C80.5,50 81,50.2 81.4,50.2 Z" fill="#7CB342"/>
  <path d="M18.1,29.3 C19.8,31 43,47.9 45.6,49.8 C45.9,50 46.3,50.1 46.6,50.1 C47,50.1 47.5,49.9 47.8,49.6 C48.4,49 48.5,48.1 48,47.4 C46.1,44.7 29.5,21.3 27.7,19.6 C26.1,18 23.5,16.4 20.8,16.4 C19.1,16.4 17.6,17 16.4,18.3 C14.6,20.1 14.1,22.4 15,24.9 C15.8,26.9 17.3,28.5 18.1,29.3 Z" fill="#7CB342"/>
  <path d="M109.9,98.7 C108.2,97 85,80.1 82.4,78.2 C81.7,77.7 80.8,77.8 80.2,78.4 C79.6,79 79.5,79.9 80,80.6 C81.9,83.3 98.5,106.7 100.3,108.4 C101.9,110 104.5,111.6 107.2,111.6 C108.9,111.6 110.4,111 111.6,109.7 C113.4,107.9 113.9,105.6 113,103.1 C112.2,101.1 110.7,99.5 109.9,98.7 Z" fill="#7CB342"/>
  <path d="M45.6,78.2 C43,80.1 19.8,96.9 18.1,98.7 C17.3,99.5 15.9,101.1 15.1,103.1 C14.2,105.6 14.7,107.9 16.5,109.7 C17.7,110.9 19.3,111.6 20.9,111.6 C23.6,111.6 26.2,109.9 27.8,108.4 C29.5,106.7 46.2,83.2 48.1,80.6 C48.6,79.9 48.5,79 47.9,78.4 C47.2,77.7 46.3,77.7 45.6,78.2 L45.6,78.2 Z" fill="#7CB342"/>
  <path d="M109.17,19.98 C108.58,18.54 106.44,18.5 104.39,19.59 C102.74,20.47 101.22,22.35 102.32,23.79 C103.46,25.28 105.05,23.32 106.52,22.42 C108,21.53 109.72,21.31 109.17,19.98 Z" fill="#FFFFFF" opacity="0.3"/>
  <path d="M23.37,19.77 C22.78,18.33 20.64,18.29 18.59,19.38 C16.94,20.26 15.42,22.14 16.52,23.58 C17.66,25.07 19.25,23.11 20.72,22.21 C22.21,21.32 23.92,21.1 23.37,19.77 Z" fill="#FFFFFF" opacity="0.3"/>
  <path d="M61.1,51.7 C63.4,54.8 67.3,53.5 68.8,50 C69.9,47.5 70.7,44.7 71.4,42.1 C72,39.6 72.6,37 73.2,34.5 C73.7,32 74.2,27.8 74.4,25.2 C74.9,20 75.1,14.6 72.8,9.8 C71.1,6.1 67,3.5 63,4 C47.4,6.1 54.5,33.1 57,42.1 C57.9,45.3 59.2,49.3 61.1,51.7 Z" fill="#7CB342"/>
  <path d="M68.07,8.72 C67.18,6.54 63.94,6.48 60.83,8.13 C58.33,9.46 56.03,12.31 57.7,14.49 C59.43,16.75 61.83,13.78 64.06,12.42 C66.29,11.05 68.91,10.73 68.07,8.72 Z" fill="#FFFFFF" opacity="0.3"/>
</svg>
